X: 1
T: Jump At the Sun
C: John Kirkpatrick 1972
M: 6/8
R: jig
K: Gm
|:"Gm"GBd ^c2d| GBd ^c2d| gdd gdd| "Gm"dcB "D"A3|
"Gm"GBd ^c2d| GBd ^c2d| "Gm"gdd "Cm"ed=c|1"D7"BcA "Gm"G3:|2"D7"BcA "Gm"G2||
|:d| "Gm"gdd bag| "D7"add c'ba| "Gm"bag bag| "D7"add e2d|
   "Gm"gdd bag| "D7"add c'ba| "Gm"gdd "Cm"edc| "D7"BcA "Gm"G2:|
